!!!COM: Jules Massenet
!!!CNT: Francais
!!!TXO: Francais
!!!OTL: Stances
!!!LYR: Gilbert
!!!ENC: Jacob Pegg
!!!YOR: Romantic French Song 1830-1870 - David Tunley, ed.,
!!!YOR: New York: Garland Publishing, Inc., 1995, Vol. 6
!!!ODT: 1869/
!!NB: Vocal melody and text only encoded.
!!NB: First instance of melodic material only encoded.
**kern	**silbe
*clef G2	*
*k[f#]	*
*M3/4	*
!!created: 12/22/03 10:04
!!proofed and posted: 1/22/04 9:37
!!edit time: 55 min.
=1	=1
2.r	.
=2	=2
4r	.
2r	.
=3	=3
{8g	{Au
8a	ban-
4b	-quet
8g	de
8e	la
=4	=4
4b	vi-
4.b	-e,
8b	in-
=5	=5
8b	-for-
8cc	-tu-
(4dd	-ne/
8cc)	|
8b	con-
=6	=6
4a	-vi-
8a}	-ve,}
8r	.
{8a	{J’ap-
8a	-pa-
=7	=7
8a	-rus
8b	un
4cc	jour
8.a	et
16f#	je
=8	=8
2b}	meurs.}
8r	.
{8b	{Je
=9	=9
(4ee-}	meurs.}
8r	.
{8ee-	{Et
8dd	sur
8dd	le
=10	=10
2g	tom-
4a	-be
=11	=11
4cc	Ou\
8cc	len-
8cc	-te-
8.b	-ment
16b	j’ar-
=12	=12
4e	-ri-
8e)}	-ve,}
8r	.
{4f#	{Nul
=13	=13
8g	ne
8a	vien-
(4b	-dra
8g)	|
8e	ver-
=14	=14
[2b	-ser
8b]	|
8d#	des
=15	=15
[2.e	pleurs!
=16	=16
2e]}	|}
8.r	.
{16e	{Sa-
=17	=17
*k[f#c#g#d#]	*
(4g#	-lut!
4g#	champs
8g#	que
8e	j’ai-
=18	=18
2a}	-mais,}
8r	.
{8a	{et
=19	=19
4a	vous
4a	dou-
8a	-ce
8f#	ver-
=20	=20
4b	-du-
4b})	-re,}
8r	.
{8b	{Sa-
=21	=21
2cc#}	-lut,}
8r	.
{8cc#	{sa-
=22	=22
[2ee	-lut
8ee]	|
8b	ri-
=23	=23
8cc#	-ant
8b	ex-
(4a	-il
8cc#)	|
8a	des
=24	=24
2g#}	bois!}
4r	.
=25	=25
{4g#	{Ciel,
8g#	pa-
8g#	-vil-
8.g#	-lon
16e	de
=26	=26
[2.a	l’hom-
=27	=27
8a]}	-me,}
8r	.
4r	.
{8a	{ad-
8f#	-mi-
=28	=28
2ddn	-ra-
8b	-ble
8a	na-
=29	=29
2gn	-tu-
(bq	|
4a)	|
=30	=30
2gn}	-re!}
8.r	.
{16b	{Sa-
=31	=31
2.b	-lut!
=32	=32
4b	pour
8ccn	la
8ccn	der-
8ccn	-nie\-
8ccn	-re
=33	=33
2a}	fois!}
8.r	.
{16a	{Sa-
=34	=34
2b	lut!
4f#	pour
=35	=35
8.a	la
16gn	der-
(4gn	-nie\-
8f#)	|
8e	-re
=36	=36
4e}	fois!}
4r	.
4gn	Ah!
!! 37-40 as 3-5	
=40	=40
*k[f#]	*
4r	.
8r	.
8r	.
{8a	{Tant
8b	d’a-
=41	=41
4cc	-mis
8cc	sourds
8cc	a\
8a	mes
8f	a-
=42	=42
2b}	-dieux!}
8r	.
{8b	{Qu’ils
=43	=43
4.ee	meu-
8ee	-rent
8dd	pleins
8dd	de
=44	=44
[4g	jours,
8g]}	|}
8r	.
{8a	{que
8a	leur
=45	=45
2cc	mort
8b	soit
8b	pleu-
=46	=46
(2e	-re/-
8f#)}	-e,}
8r	.
=47	=47
{8g	{Qu’un
8a	a-
(4b	-mi
8g)	|
8e	leur
=48	=48
2b	fer-
8b	-me
8b	les
=49	=49
[4cc#	yeux!
8cc#]}	|}
8r	.
{8cc#	{Qu’un
8cc#	a-
=50	=50
2dd	-mi
4dd	leur
=51	=51
2dd#	fer-
8dd#	-me
8dd#	les
=52	=52
[2.ee	yeux!
=53	=53
2ee]}	|}
4r	.
=54	=54
4r	.
4r	.
{8g	{Qu’un
8g	a-
=55	=55
2b	-mi
4b	leur
=56	=56
(2b	fer-
8d#)	-me
8d#	les
=57	=57
[2.e	yeux!
=58	=58
2.e_	|
=59	=59
4e]}	|}
4r	.
4r	.
*-	*-
